assets/companies/dark/rappi.svg

<svg width="48" height="20" viewBox="0 0 48 20" fill="none" xmlns="http://www.w3.org/2000/svg">
<path fill-rule="evenodd" clip-rule="evenodd" d="M37.2386 7.73736C37.1722 8.09809 37.0672 8.51462 36.9264 8.97367C36.7849 9.43272 36.6035 9.91701 36.3896 10.4079C36.1571 10.9029 35.9159 11.3659 35.6741 11.7831C35.435 12.1963 35.1958 12.5517 34.9666 12.8394C34.7427 13.1197 34.5348 13.327 34.3501 13.4559C34.2106 13.5528 34.1329 13.5635 34.1063 13.5635C34.0938 13.5635 34.0837 13.5615 34.0731 13.5567C34.0497 13.5461 33.9721 13.4943 33.9382 13.2478C33.9063 13.0219 33.9237 12.725 33.9881 12.3656C34.0545 11.9955 34.1588 11.575 34.3003 11.1186C34.4398 10.6622 34.6212 10.1779 34.8384 9.68037C35.0537 9.18678 35.2888 8.7264 35.5386 8.3112C35.787 7.89667 36.0289 7.54524 36.2581 7.26622C36.4806 6.99385 36.6885 6.7899 36.8759 6.65903C37.0161 6.56204 37.0931 6.55142 37.1197 6.55142C37.1331 6.55142 37.143 6.5534 37.1522 6.55819C37.1756 6.56824 37.2532 6.62063 37.2877 6.8671C37.3189 7.09297 37.3023 7.38527 37.2386 7.73736ZM27.9128 7.73736C27.8464 8.09809 27.7414 8.51462 27.6006 8.97367C27.4584 9.43537 27.2771 9.919 27.0638 10.4079C26.8306 10.9042 26.5895 11.3672 26.3483 11.7831C26.1085 12.197 25.87 12.5524 25.6408 12.8394C25.417 13.1197 25.2097 13.327 25.0237 13.4559C24.8842 13.5528 24.8071 13.5635 24.7805 13.5635C24.768 13.5635 24.7579 13.5615 24.7473 13.5569C24.7239 13.5464 24.6463 13.4945 24.6124 13.248C24.5806 13.0228 24.5972 12.7265 24.6623 12.3658C24.728 11.9964 24.833 11.5773 24.9745 11.1189C25.114 10.6618 25.2954 10.1782 25.5126 9.68061C25.7285 9.18569 25.9643 8.72531 26.2121 8.31144C26.4619 7.89624 26.7037 7.54481 26.9323 7.26646C27.1555 6.99409 27.3641 6.78948 27.5501 6.65927C27.6896 6.56228 27.7673 6.55166 27.7939 6.55166C27.8073 6.55166 27.8172 6.55364 27.8264 6.55819C27.8498 6.56824 27.9281 6.62063 27.962 6.8671C27.9932 7.09297 27.9765 7.38527 27.9128 7.73736ZM17.8085 7.64436C17.7673 8.01107 17.6876 8.42959 17.5713 8.8893C17.4544 9.34769 17.2949 9.82998 17.0963 10.3242C16.8983 10.8158 16.6877 11.2782 16.4692 11.6981C16.2553 12.1086 16.0394 12.4587 15.8261 12.7391C15.6188 13.0114 15.4242 13.2147 15.2468 13.3429C15.116 13.4379 15.0429 13.4486 15.0183 13.4486C15.007 13.4486 14.997 13.4466 14.9864 13.4418C14.9625 13.4312 14.8801 13.3773 14.8376 13.1269C14.7977 12.8977 14.7944 12.6021 14.8263 12.2473C14.8595 11.8873 14.9346 11.4734 15.0502 11.0177C15.1658 10.5613 15.3258 10.0783 15.5251 9.58273C15.7258 9.08449 15.937 8.62279 16.1529 8.20825C16.3655 7.79836 16.5821 7.44428 16.7967 7.1553C17.0026 6.87628 17.1979 6.67034 17.3746 6.54213C17.5055 6.44712 17.5786 6.4365 17.6038 6.4365C17.6151 6.4365 17.6251 6.43848 17.6344 6.44327C17.6596 6.45382 17.7453 6.50971 17.7978 6.76347C17.8443 6.98935 17.8482 7.28496 17.8085 7.64436ZM38.2404 4.59778C38.7287 4.59778 39.1485 4.74725 39.4887 5.04287C39.8169 5.32787 40.0514 5.7351 40.1849 6.25261C40.3144 6.75417 40.341 7.3607 40.2646 8.05624C40.1882 8.74315 39.9876 9.52705 39.6667 10.386C39.3644 11.1978 39.0177 11.912 38.6377 12.5079C38.4537 12.7975 38.2643 13.0686 38.0723 13.319C38.0477 13.3509 38.0845 13.3928 38.1195 13.3735C38.2311 13.313 38.342 13.2473 38.4517 13.1755C38.7014 13.0141 38.9413 12.84 39.1691 12.656C39.8049 12.1412 40.2666 11.445 40.4911 10.6624C40.6253 10.1914 40.7741 9.72436 40.9362 9.26398C41.2019 8.50599 41.4856 7.79849 41.7799 7.16074C42.0722 6.52498 42.3154 6.04932 42.5027 5.74573C42.7153 5.40028 43.0129 5.18504 43.3896 5.10532C43.7417 5.03092 44.0785 5.03622 44.388 5.11988C44.7049 5.20625 44.964 5.36303 45.1573 5.58756C45.3679 5.8327 45.4138 6.11171 45.2889 6.39472C45.2517 6.49236 45.154 6.71558 44.9986 7.05904C44.8424 7.40449 44.6671 7.80773 44.4631 8.29401C44.2671 8.76104 44.0659 9.26658 43.8652 9.79539C43.6693 10.3149 43.5158 10.7998 43.4095 11.237C43.3059 11.6621 43.2653 12.0156 43.2886 12.2873C43.3112 12.547 43.4102 12.547 43.464 12.547C43.5397 12.547 43.6739 12.5111 43.8825 12.3411C44.0831 12.175 44.295 11.975 44.5136 11.7438C44.7322 11.512 44.9421 11.2622 45.1361 11.0018C45.3135 10.7646 45.4656 10.5547 45.5891 10.3773C45.6968 10.2225 45.8682 10.1342 46.0588 10.1342C46.2601 10.1342 46.4554 10.2352 46.5571 10.3913C46.6561 10.5441 46.6534 10.7261 46.5484 10.8895C46.4169 11.0948 46.187 11.4389 45.8456 11.9431C45.5074 12.4414 45.1029 12.9549 44.6431 13.4704C44.1755 13.9932 43.6646 14.4576 43.1232 14.8502C42.5538 15.2641 41.9785 15.4733 41.4145 15.4733C40.9043 15.4733 40.5237 15.2966 40.2825 14.9472C40.0633 14.6283 39.9517 14.2005 39.9517 13.6757V13.592C39.9531 13.5295 39.88 13.4943 39.8315 13.5335C39.7245 13.6192 39.6143 13.7043 39.502 13.788C38.8389 14.2816 38.0736 14.7001 37.2259 15.0329C36.4693 15.3305 35.6355 15.4813 34.748 15.4813L34.5673 15.4793L34.3859 15.4733C33.7814 15.472 33.333 15.2826 33.052 14.9086C33.0022 14.8429 32.9563 14.7751 32.9158 14.7053C32.8833 14.6495 32.7989 14.6588 32.7803 14.7212C32.6893 15.0248 32.6029 15.3177 32.5232 15.5981C32.3505 16.2006 32.203 16.7221 32.0734 17.1924C31.9432 17.6641 31.8303 18.0939 31.7373 18.4719C31.6476 18.836 31.5852 19.1309 31.5533 19.3495L31.5513 19.3576C31.4696 19.7715 31.1899 19.917 30.9686 19.9668C30.8703 19.9886 30.768 20 30.6644 20C30.4771 20 30.2791 19.9635 30.0765 19.8924C29.7682 19.7834 29.4912 19.5954 29.252 19.333C29.0042 19.0607 28.8787 18.7199 28.8787 18.3199C28.8787 18.2389 28.8993 18.0615 29.0581 17.4085C29.177 16.9269 29.3371 16.3276 29.5357 15.6268C29.6699 15.1518 29.8227 14.6349 29.9921 14.0822C30.0119 14.0158 29.9363 13.9606 29.8792 13.9998C29.2886 14.4018 28.6263 14.7492 27.9035 15.0329C27.1461 15.3305 26.3131 15.4813 25.4255 15.4813C25.306 15.4813 25.1837 15.4785 25.0628 15.4732C24.459 15.4719 24.0105 15.2826 23.7289 14.9086C23.6791 14.8428 23.6339 14.7757 23.5934 14.7053C23.5602 14.6495 23.4764 14.6594 23.4578 14.7211C23.3662 15.0254 23.2798 15.319 23.2001 15.598C23.0267 16.2025 22.8792 16.7247 22.751 17.1924C22.6208 17.6641 22.5072 18.0939 22.4142 18.4719C22.3245 18.8366 22.2627 19.1315 22.2302 19.3494L22.2288 19.3575C22.1471 19.7714 21.8668 19.9169 21.6456 19.9667C21.5472 19.9886 21.4456 19.9999 21.342 19.9999C21.1546 19.9999 20.9567 19.9634 20.7534 19.8923C20.4451 19.7834 20.1688 19.5954 19.9296 19.333C19.6818 19.0606 19.5563 18.7198 19.5563 18.3199C19.5563 18.2382 19.5761 18.0608 19.7356 17.4084C19.8552 16.9221 20.0153 16.3229 20.2126 15.6267C20.3296 15.2128 20.4591 14.7717 20.6046 14.2954C20.6259 14.2236 20.5381 14.1692 20.4824 14.2203C20.2346 14.4462 19.9795 14.6568 19.7177 14.8494C19.1564 15.2633 18.585 15.4732 18.0204 15.4732C17.5102 15.4732 17.1288 15.2965 16.8884 14.9471C16.7914 14.8062 16.7157 14.6434 16.6605 14.4607C16.6121 14.298 16.4034 14.2481 16.2852 14.371C16.1191 14.5438 15.9364 14.7012 15.7405 14.84C15.4854 15.0207 15.2004 15.1722 14.8921 15.2905C14.5746 15.4113 14.2311 15.4731 13.8711 15.4731C13.3841 15.4731 12.9569 15.325 12.6022 15.032C12.2567 14.749 12.001 14.3478 11.8409 13.8382C11.6854 13.3447 11.6283 12.7381 11.6708 12.0346C11.7133 11.3397 11.8714 10.5598 12.1412 9.71546C12.7158 7.9643 13.4652 6.66422 14.3693 5.8491C15.2901 5.01869 16.2241 4.59751 17.1455 4.59751C17.5355 4.59751 17.8656 4.6759 18.1254 4.83002C18.3811 4.9828 18.5785 5.18476 18.712 5.43056C18.801 5.59598 18.8661 5.77335 18.906 5.96202C18.9131 5.99524 18.9584 6.00187 18.9751 5.97207C19.0216 5.88836 19.0661 5.81331 19.1079 5.74487C19.3205 5.40075 19.6141 5.1855 19.9815 5.10512C20.325 5.03073 20.6611 5.03537 20.9793 5.11918C21.3055 5.20556 21.5692 5.36299 21.7632 5.58753C21.9738 5.83266 22.0197 6.11168 21.8941 6.39468C21.8576 6.491 21.7632 6.7089 21.6044 7.059C21.4497 7.40179 21.269 7.81699 21.069 8.29397C20.871 8.76631 20.6697 9.27186 20.4711 9.79534C20.2745 10.3148 20.121 10.8005 20.0154 11.2369C19.9118 11.6628 19.8712 12.0162 19.8945 12.2872C19.9171 12.547 20.0161 12.547 20.0692 12.547C20.1457 12.547 20.2798 12.5111 20.4878 12.341C20.6027 12.246 20.7223 12.1391 20.8445 12.0215C21.3182 11.5651 21.6357 11.0669 21.8476 10.4471C22.1293 9.62462 22.4256 8.81282 22.7298 8.03025C23.0547 7.19785 23.3716 6.45049 23.6719 5.80875C23.8286 5.47659 24.0771 5.25271 24.4079 5.14509C24.7182 5.0441 25.0364 5.02286 25.3493 5.08199C25.6615 5.14178 25.9352 5.26601 26.1624 5.45202C26.2634 5.5344 26.3437 5.62341 26.4035 5.71709C26.4194 5.74232 26.4381 5.74498 26.46 5.72437C26.7284 5.47658 27.0247 5.24938 27.3442 5.04677C27.8119 4.74848 28.3414 4.59768 28.918 4.59768C29.4056 4.59768 29.8261 4.74715 30.1656 5.04278C30.4944 5.32844 30.7289 5.735 30.8625 6.25251C30.992 6.75341 31.0186 7.3606 30.9422 8.05615C30.8658 8.74239 30.6645 9.52696 30.3443 10.3859C30.0414 11.1984 29.6946 11.9125 29.3146 12.5078C29.1306 12.7974 28.9412 13.0685 28.7493 13.3189C28.7246 13.3508 28.7618 13.3927 28.7971 13.3734C28.908 13.3129 29.019 13.2472 29.1293 13.1754C29.308 13.0598 29.4813 12.9376 29.6488 12.81C30.2852 12.3264 30.7602 11.6647 31.0133 10.9114L31.1129 10.6171C31.4119 9.73356 31.7281 8.8633 32.0523 8.03024C32.3778 7.19652 32.6947 6.44915 32.9949 5.80874C33.1511 5.47658 33.3989 5.25337 33.731 5.14509C34.0413 5.0441 34.3595 5.02286 34.6724 5.08199C34.9846 5.14177 35.2576 5.26601 35.4848 5.45135C35.5858 5.53439 35.6662 5.62342 35.726 5.71708C35.742 5.74232 35.7605 5.74498 35.7824 5.72437C36.0508 5.47658 36.3471 5.24938 36.6667 5.04676C37.135 4.74845 37.6644 4.59778 38.2404 4.59778ZM7.68555 0.459712C8.38574 0.459712 9.08727 0.540762 9.77152 0.699521C10.4604 0.86029 11.0856 1.10476 11.6283 1.42629C12.1777 1.75181 12.6288 2.16036 12.9689 2.64067C13.3157 3.12961 13.4911 3.70292 13.4911 4.34466C13.4911 5.03555 13.337 5.68393 13.0327 6.2712C12.7311 6.85248 12.3159 7.38327 11.7997 7.84896C11.2882 8.31133 10.6816 8.71923 9.99673 9.06069C9.43205 9.34236 8.83217 9.58284 8.20903 9.77616C8.16916 9.78872 8.15523 9.80938 8.15721 9.84923C8.17052 10.1548 8.19241 10.4571 8.22365 10.7481C8.25885 11.0822 8.30535 11.4077 8.3625 11.7166C8.41829 12.0202 8.48605 12.3159 8.56246 12.5955C8.62224 12.8121 8.68868 13.0227 8.75976 13.2227C8.80493 13.3502 8.85276 13.4751 8.90127 13.592C8.99892 13.8279 9.10656 14.0537 9.22081 14.263C9.33307 14.4689 9.45465 14.6642 9.5822 14.8436C9.70644 15.0183 9.83996 15.1824 9.9788 15.3325C10.1143 15.4787 10.2578 15.6129 10.4053 15.7325C10.5488 15.8487 10.7003 15.9544 10.855 16.0447C11.0058 16.1337 11.164 16.2108 11.3254 16.2746C11.4842 16.337 11.6482 16.3875 11.8137 16.424C11.9798 16.4606 12.1505 16.4838 12.3232 16.4951C12.4953 16.5057 12.6746 16.5037 12.8533 16.4878C13.0354 16.472 13.2214 16.4427 13.406 16.3995C13.5954 16.3556 13.788 16.2978 13.98 16.2268C14.1767 16.1537 14.3753 16.0647 14.5713 15.9643C14.6463 15.9258 14.7221 15.8846 14.7971 15.8421C15.0416 15.7026 15.3538 15.7691 15.5179 15.9949C15.6827 16.2208 15.6462 16.533 15.4336 16.7164C15.3293 16.806 15.2243 16.8937 15.1207 16.9774C14.8689 17.1807 14.6165 17.3694 14.37 17.5375C14.1362 17.6969 13.8983 17.8457 13.6631 17.9779C13.5456 18.0444 13.422 18.1095 13.2964 18.1719C13.0553 18.2928 12.8115 18.3991 12.5703 18.4881C12.3305 18.5765 12.0894 18.6502 11.8542 18.706C11.6197 18.7618 11.3832 18.8023 11.1527 18.8256C10.9879 18.8421 10.8232 18.8508 10.6624 18.8508C10.5973 18.8508 10.5322 18.8495 10.4671 18.8462C10.2439 18.8368 10.022 18.811 9.80675 18.7691C9.70046 18.7486 9.59283 18.7233 9.48787 18.6941C9.38623 18.6668 9.28193 18.6343 9.17764 18.5964C8.97767 18.5247 8.77904 18.4364 8.58904 18.3334C8.40304 18.2325 8.21967 18.1162 8.04562 17.9873C7.90479 17.883 7.76661 17.7681 7.63574 17.6465C7.47828 17.5004 7.32483 17.3376 7.17935 17.1649C7.03585 16.9942 6.89834 16.8095 6.77079 16.6162C6.64259 16.4235 6.52166 16.2176 6.41006 16.005C6.29911 15.7924 6.1935 15.5665 6.09783 15.334C6.00282 15.1035 5.91446 14.859 5.83409 14.6059C5.75503 14.3575 5.68264 14.0944 5.61884 13.8233C5.55572 13.553 5.50058 13.2726 5.45476 12.9896C5.41358 12.7392 5.37903 12.4794 5.35179 12.2157C5.34375 12.136 5.22888 12.1254 5.20563 12.2031C5.10598 12.5472 5.01564 12.8807 4.93592 13.1996C4.83561 13.5995 4.74326 13.9636 4.65956 14.2904C4.57786 14.6106 4.52006 14.8684 4.48684 15.0564C4.4204 15.3899 4.19919 15.6005 3.84444 15.6689C3.53951 15.7287 3.212 15.7035 2.87453 15.5958C2.54104 15.4889 2.23811 15.3035 1.97304 15.0438C1.69535 14.7714 1.55452 14.4293 1.55452 14.026C1.55452 13.6979 1.63823 13.179 1.80962 12.441C1.97702 11.7202 2.21818 10.8659 2.52775 9.9006C2.83467 8.94331 3.20735 7.8877 3.63451 6.765C4.00122 5.8004 4.4131 4.82916 4.85952 3.87121C5.00568 3.55765 5.30794 3.34174 5.65671 3.30188C6.44526 3.21154 7.12951 3.23412 7.70947 3.36832C8.0589 3.44937 8.24624 3.82338 8.10009 4.14558C7.72608 4.96801 7.38129 5.78845 7.07305 6.58696C6.82392 7.23335 6.58477 7.87309 6.3589 8.49556C6.33705 8.55735 6.40075 8.61448 6.46054 8.58723C6.76148 8.45105 7.05843 8.29028 7.34874 8.10693C7.82439 7.80599 8.25753 7.44659 8.63686 7.03936C9.0142 6.63213 9.32377 6.17308 9.55695 5.67418C9.78681 5.17992 9.90372 4.64315 9.90372 4.07714C9.90372 3.34971 9.69912 2.81228 9.29587 2.48078C8.88731 2.14529 8.31201 1.97456 7.58524 1.97456C6.8113 1.97456 6.1038 2.15527 5.48266 2.512C4.84491 2.87738 4.29352 3.32646 3.84377 3.84729C3.3907 4.3721 3.0333 4.93279 2.78285 5.51408C2.5344 6.09004 2.40817 6.59493 2.40817 7.01544C2.40817 7.31638 2.24675 7.53362 1.95377 7.62729C1.69668 7.70967 1.41302 7.69772 1.12204 7.59076C0.84236 7.48844 0.583275 7.28583 0.351425 6.98954C0.118245 6.69192 0 6.28868 0 5.7911C0 5.35664 0.167398 4.84511 0.511528 4.22729C0.846347 3.62475 1.34193 3.03815 1.983 2.48344C2.62341 1.93006 3.43123 1.44975 4.38652 1.05648C5.34713 0.660538 6.45722 0.459712 7.68555 0.459712ZM45.7958 0C46.8673 0 47.7356 0.856977 47.7356 1.91325C47.7356 2.96952 46.8673 3.8265 45.7958 3.8265C44.7242 3.8265 43.8559 2.96952 43.8559 1.91325C43.8559 0.856977 44.7242 0 45.7958 0Z" fill="#9A9CAC"/>
</svg>

<svg xmlns="http://www.w3.org/2000/svg" width="48" height="20" fill="none" viewBox="0 0 48 20"><path fill="#9A9CAC" fill-rule="evenodd" d="M37.239 7.737c-.067.361-.172.778-.313 1.237a14 14 0 0 1-.536 1.434 18 18 0 0 1-.716 1.375 9 9 0 0 1-.707 1.056q-.338.422-.617.617c-.14.097-.217.107-.244.107a.1.1 0 0 1-.033-.006c-.023-.01-.1-.063-.135-.31-.032-.225-.014-.522.05-.881.066-.37.17-.791.312-1.247.14-.457.321-.941.538-1.439.216-.493.45-.954.7-1.369.249-.414.49-.766.72-1.045q.335-.41.618-.607c.14-.097.217-.108.244-.108q.019 0 .032.007c.024.01.101.063.136.31q.046.339-.05.87m-9.326 0c-.067.361-.172.778-.312 1.237-.143.461-.324.945-.537 1.434-.233.496-.474.96-.716 1.375a9 9 0 0 1-.707 1.056q-.337.422-.617.617c-.14.097-.217.107-.244.107a.1.1 0 0 1-.033-.006c-.023-.01-.1-.062-.135-.309q-.047-.339.05-.882c.066-.37.171-.789.313-1.247.139-.457.32-.94.538-1.438.215-.495.451-.956.7-1.37a9 9 0 0 1 .72-1.045q.336-.41.617-.607c.14-.097.217-.107.244-.107a.1.1 0 0 1 .032.006c.024.01.102.063.136.31q.047.339-.05.87m-10.105-.093c-.04.367-.12.786-.237 1.245s-.276.941-.475 1.435c-.198.492-.408.954-.627 1.374-.214.41-.43.76-.643 1.041q-.312.41-.58.604c-.13.095-.203.106-.228.106a.1.1 0 0 1-.032-.007c-.024-.01-.106-.065-.148-.315a3.5 3.5 0 0 1-.012-.88c.034-.36.109-.774.224-1.23.116-.456.276-.939.475-1.434.2-.499.412-.96.628-1.375.213-.41.43-.764.644-1.053q.31-.42.578-.613c.13-.095.204-.106.229-.106q.017 0 .03.007c.026.01.111.067.164.32q.07.34.01.881M38.24 4.598q.735.001 1.249.445c.328.285.562.692.696 1.21.13.501.156 1.108.08 1.803-.077.687-.277 1.471-.598 2.33a11.3 11.3 0 0 1-1.03 2.122q-.276.435-.565.811c-.024.032.012.074.047.054a5 5 0 0 0 .333-.197q.376-.244.717-.52a4 4 0 0 0 1.322-1.994q.201-.707.445-1.398c.266-.758.55-1.466.844-2.103.292-.636.535-1.112.723-1.415q.32-.52.887-.64a2.1 2.1 0 0 1 .998.014q.477.13.77.468c.21.245.256.524.13.807q-.055.147-.29.664a49 49 0 0 0-1.133 2.736 13 13 0 0 0-.456 1.442c-.103.425-.144.779-.12 1.05.022.26.121.26.175.26.076 0 .21-.036.419-.206q.301-.25.63-.597.332-.35.623-.742.267-.357.453-.625a.56.56 0 0 1 .47-.243c.201 0 .396.101.498.257a.44.44 0 0 1-.009.498c-.131.206-.361.55-.702 1.054a15 15 0 0 1-1.203 1.527 9.7 9.7 0 0 1-1.52 1.38c-.57.414-1.145.623-1.709.623-.51 0-.89-.176-1.132-.526-.219-.319-.33-.746-.33-1.271v-.084a.074.074 0 0 0-.12-.059q-.162.129-.33.255a9.8 9.8 0 0 1-2.276 1.245 6.7 6.7 0 0 1-2.478.448l-.18-.002-.182-.006c-.605-.001-1.053-.19-1.334-.564a2 2 0 0 1-.136-.204.074.074 0 0 0-.136.016q-.136.457-.257.877c-.173.603-.32 1.124-.45 1.594-.13.472-.243.902-.336 1.28q-.136.548-.184.877l-.002.009a.73.73 0 0 1-.582.609q-.149.033-.305.033-.282 0-.588-.108a2 2 0 0 1-.824-.559 1.46 1.46 0 0 1-.373-1.013c0-.081.02-.259.18-.912.118-.481.278-1.08.477-1.781q.202-.714.456-1.545c.02-.066-.056-.121-.113-.082-.59.402-1.253.75-1.976 1.033a6.8 6.8 0 0 1-2.477.448 8 8 0 0 1-.363-.008c-.604-.001-1.052-.19-1.334-.564a2 2 0 0 1-.136-.204.075.075 0 0 0-.135.016 142 142 0 0 0-.707 2.471c-.13.472-.244.902-.337 1.28-.09.365-.151.66-.184.877l-.001.009a.73.73 0 0 1-.583.609q-.148.033-.304.033a1.8 1.8 0 0 1-.589-.108 2 2 0 0 1-.823-.559 1.46 1.46 0 0 1-.374-1.013c0-.082.02-.26.18-.912a66 66 0 0 1 .869-3.113c.02-.071-.067-.126-.123-.075a10 10 0 0 1-.764.63c-.562.413-1.133.623-1.698.623-.51 0-.891-.177-1.132-.526a1.7 1.7 0 0 1-.228-.486.224.224 0 0 0-.375-.09 3.8 3.8 0 0 1-1.393.92 2.9 2.9 0 0 1-1.02.182 1.94 1.94 0 0 1-1.27-.441c-.345-.283-.601-.684-.761-1.194-.156-.493-.213-1.1-.17-1.803.042-.695.2-1.475.47-2.32.575-1.75 1.324-3.05 2.228-3.866.921-.83 1.855-1.251 2.776-1.251.39 0 .72.078.98.232q.385.231.587.6.134.249.194.532c.007.033.052.04.07.01q.069-.125.132-.227c.212-.344.506-.56.874-.64.343-.074.68-.07.997.014q.491.131.784.469c.21.245.257.524.131.807-.036.096-.13.314-.29.664a51 51 0 0 0-1.133 2.736 12 12 0 0 0-.456 1.442c-.103.426-.144.78-.12 1.05.022.26.121.26.174.26.077 0 .21-.036.419-.206q.172-.143.357-.32a3.8 3.8 0 0 0 1.003-1.574c.281-.822.578-1.634.882-2.417.325-.832.642-1.58.942-2.221a1.2 1.2 0 0 1 .736-.664 1.89 1.89 0 0 1 1.754.307q.152.124.242.265.023.038.056.007.404-.372.884-.677c.468-.299.997-.45 1.574-.45.488 0 .908.15 1.248.446.328.285.563.692.697 1.21.129.5.156 1.108.08 1.803-.077.686-.279 1.471-.599 2.33-.303.812-.65 1.527-1.03 2.122q-.276.435-.565.81c-.024.033.013.075.048.055q.167-.09.332-.198.268-.173.52-.365a4 4 0 0 0 1.364-1.899l.1-.294c.299-.883.615-1.754.94-2.587s.642-1.58.942-2.221c.156-.332.404-.556.736-.664a1.89 1.89 0 0 1 1.754.306q.15.125.241.266.024.038.056.007.404-.372.885-.677a2.9 2.9 0 0 1 1.573-.45M7.686.46c.7 0 1.401.08 2.086.24a6.6 6.6 0 0 1 1.856.726c.55.326 1 .734 1.34 1.215.348.489.523 1.062.523 1.704 0 .69-.154 1.339-.458 1.926A5.6 5.6 0 0 1 11.8 7.85a8 8 0 0 1-1.803 1.212 12 12 0 0 1-1.788.715c-.04.013-.054.033-.052.073q.02.46.067.9c.035.333.081.659.139.968.055.303.123.599.2.878a9 9 0 0 0 .338.997q.148.356.32.671.17.31.361.58.187.264.397.49.204.22.426.4a3.6 3.6 0 0 0 .92.542 3.3 3.3 0 0 0 .998.22c.172.01.352.009.53-.007q.274-.024.553-.088.286-.066.574-.173a5.5 5.5 0 0 0 .817-.385.554.554 0 0 1 .72.153.534.534 0 0 1-.083.721q-.158.136-.313.261-.38.307-.751.56-.353.242-.707.44a8 8 0 0 1-1.093.511q-.361.133-.716.218a5 5 0 0 1-.701.12 5 5 0 0 1-.686.02 4.4 4.4 0 0 1-1.29-.25 4 4 0 0 1-.588-.263 4.6 4.6 0 0 1-.953-.686 5 5 0 0 1-.457-.482 6 6 0 0 1-.408-.549 7 7 0 0 1-.36-.611 8 8 0 0 1-.313-.671 9 9 0 0 1-.264-.728 11 11 0 0 1-.215-.783 13 13 0 0 1-.267-1.608c-.008-.079-.123-.09-.146-.012q-.15.517-.27.997-.15.6-.276 1.09-.123.482-.173.766c-.067.334-.288.545-.643.613-.304.06-.632.034-.97-.073a2.3 2.3 0 0 1-.901-.552 1.37 1.37 0 0 1-.418-1.018c0-.328.083-.847.255-1.585.167-.72.408-1.575.718-2.54.307-.958.68-2.013 1.107-3.136C4 5.8 4.413 4.829 4.86 3.871c.146-.313.448-.53.797-.57q1.183-.135 2.052.067c.35.081.537.455.391.778a46 46 0 0 0-1.027 2.441c-.25.646-.488 1.286-.714 1.909-.022.061.042.118.102.091q.45-.205.888-.48c.475-.301.909-.66 1.288-1.068a5.3 5.3 0 0 0 .92-1.365 3.75 3.75 0 0 0 .347-1.597c0-.727-.205-1.265-.608-1.596-.409-.336-.984-.506-1.71-.506-.775 0-1.482.18-2.103.537a6.3 6.3 0 0 0-1.64 1.335 6.5 6.5 0 0 0-1.06 1.667c-.249.576-.375 1.08-.375 1.501 0 .301-.161.519-.454.612-.257.083-.541.07-.832-.036Q.7 7.435.352 6.99C.117 6.692 0 6.289 0 5.79c0-.434.167-.946.512-1.564.334-.602.83-1.189 1.471-1.744.64-.553 1.448-1.033 2.404-1.427C5.347.661 6.457.46 7.686.46M45.796 0c1.071 0 1.94.857 1.94 1.913s-.869 1.913-1.94 1.913c-1.072 0-1.94-.856-1.94-1.913S44.724 0 45.796 0" clip-rule="evenodd"/></svg>
